www/assets/icons/mic_external_off.svg

<svg width="24" height="24" viewBox="0 0 24 24" xmlns="http://www.w3.org/2000/svg" fill='currentColor'><path d="M21.9 20.8848L3.51998 2.50482L2.09998 3.91482L5.87998 7.69482H4.70998L5.70998 17.6948H6.70998C6.70998 19.9048 8.49998 21.6948 10.71 21.6948C12.92 21.6948 14.71 19.9048 14.71 17.6948V16.5248L20.49 22.3048L21.9 20.8848ZM12.71 17.6948C12.71 18.7948 11.81 19.6948 10.71 19.6948C9.60998 19.6948 8.70998 18.7948 8.70998 17.6948H9.70998L10.27 12.0848L12.71 14.5248V17.6948ZM14.71 5.69482V10.8648L12.71 8.86482V5.69482C12.71 3.48482 14.5 1.69482 16.71 1.69482C18.92 1.69482 20.71 3.48482 20.71 5.69482V16.8648L18.71 14.8648V5.69482C18.71 4.59482 17.81 3.69482 16.71 3.69482C15.61 3.69482 14.71 4.59482 14.71 5.69482ZM10.71 4.69482C10.71 5.31482 10.51 5.87482 10.19 6.35482L6.03998 2.20482C6.51998 1.88482 7.08998 1.69482 7.70998 1.69482C9.36998 1.69482 10.71 3.03482 10.71 4.69482Z"/></svg>

<svg xmlns="http://www.w3.org/2000/svg" width="24" height="24" viewBox="0 0 24 24" fill='currentColor'><path d="M21.9 20.885 3.52 2.505 2.1 3.915l3.78 3.78H4.71l1 10h1c0 2.21 1.79 4 4 4s4-1.79 4-4v-1.17l5.78 5.78zm-9.19-3.19c0 1.1-.9 2-2 2s-2-.9-2-2h1l.56-5.61 2.44 2.44zm2-12v5.17l-2-2v-3.17c0-2.21 1.79-4 4-4s4 1.79 4 4v11.17l-2-2v-9.17c0-1.1-.9-2-2-2s-2 .9-2 2m-4-1c0 .62-.2 1.18-.52 1.66l-4.15-4.15a2.996 2.996 0 0 1 4.67 2.49"/></svg>
